X:10
T:Denis Murphy's Polka
M:2/4
L:1/8
K:D
f/g/f/e/ d>B|AD FA|GE e>d|cB BA|\
f/g/f/e/ d>B| AD FA|GE e>f|ed d2 :|
Af f/e/f|Bg g/f/g|Af f/e/d| e/f/e/d/ BA|\
Af f/e/f|Bg g>a|ba gc|ed d2 :|
